www/assets/icons/do_not_step.svg

<svg width="24" height="24" viewBox="0 0 24 24" xmlns="http://www.w3.org/2000/svg" fill='currentColor'><path d="M1.39 3.91507L9.29 11.8151C9.47 12.0151 9.47 12.3151 9.28 12.5151C9.18 12.6151 9.05 12.6651 8.93 12.6651C8.81 12.6651 8.67 12.6151 8.58 12.5151L6.87 10.7951C6.76 11.1951 6.61 11.5751 6.42 11.9151L7.82 13.3151C8.02 13.5151 8.02 13.8251 7.82 14.0251C7.72 14.1251 7.59 14.1751 7.47 14.1751C7.35 14.1751 7.21 14.1251 7.12 14.0251L5.85 12.7551C5.61 13.0451 5.35 13.3151 5.08 13.5551L6.36 14.8351C6.56 15.0351 6.56 15.3451 6.36 15.5451C6.26 15.6451 6.13 15.6951 6 15.6951C5.87 15.6951 5.74 15.6451 5.65 15.5451L4.27 14.1651C3.58 14.6251 2.88 14.9551 2.3 15.1851C1.52 15.4951 1 16.2251 1 17.0651V19.6951H10.5L13.83 16.3651L19.77 22.3051L21.18 20.8951L2.81 2.50507L1.39 3.91507ZM18.51 15.3751L17.1 13.9651L21.58 9.48507L23 10.8951L18.51 15.3751ZM20.88 8.77507L16.4 13.2551L9.3 6.16507L13.8 1.69507L20.88 8.77507Z"/></svg>

<svg xmlns="http://www.w3.org/2000/svg" width="24" height="24" viewBox="0 0 24 24" fill='currentColor'><path d="m1.39 3.915 7.9 7.9c.18.2.18.5-.01.7a.485.485 0 0 1-.7 0l-1.71-1.72c-.11.4-.26.78-.45 1.12l1.4 1.4c.2.2.2.51 0 .71a.485.485 0 0 1-.7 0l-1.27-1.27c-.24.29-.5.56-.77.8l1.28 1.28c.2.2.2.51 0 .71-.1.1-.23.15-.36.15a.47.47 0 0 1-.35-.15l-1.38-1.38c-.69.46-1.39.79-1.97 1.02-.78.31-1.3 1.04-1.3 1.88v2.63h9.5l3.33-3.33 5.94 5.94 1.41-1.41L2.81 2.505zm17.12 11.46-1.41-1.41 4.48-4.48 1.42 1.41zm2.37-6.6-4.48 4.48-7.1-7.09 4.5-4.47z"/></svg>
